Newaita-dark/apps/48/weather.svg

<svg height="48pt" viewBox="0 0 48 48" width="48pt" xmlns="http://www.w3.org/2000/svg" xmlns:xlink="http://www.w3.org/1999/xlink"><linearGradient id="a" gradientUnits="userSpaceOnUse" x1="23.814786" x2="23.814786" y1="41.5547615" y2="43.53932750005"><stop offset="0" stop-opacity=".27451"/><stop offset="1" stop-opacity="0"/></linearGradient><linearGradient id="b"><stop offset="0" stop-opacity=".313725"/><stop offset=".222222" stop-opacity=".27451"/><stop offset="1" stop-opacity="0"/></linearGradient><radialGradient id="c" cx="450.908936" cy="189.579361" gradientTransform="matrix(.00000026 -.117199 -.210958 -.00000015 73.730698 94.896856)" gradientUnits="userSpaceOnUse" r="21.166656" xlink:href="#b"/><radialGradient id="d" cx="450.908936" cy="189.579361" gradientTransform="matrix(-.00000026 .117199 .210958 .00000015 -29.574151 -11.787361)" gradientUnits="userSpaceOnUse" r="21.166656" xlink:href="#b"/><radialGradient id="e" cx="450.908936" cy="189.579361" gradientTransform="matrix(-.00000026 -.117199 .210958 -.00000015 -29.574151 94.896856)" gradientUnits="userSpaceOnUse" r="21.166656" xlink:href="#b"/><radialGradient id="f" cx="450.908936" cy="189.579361" gradientTransform="matrix(.00000026 .117199 -.210958 .00000015 73.730695 -11.787362)" gradientUnits="userSpaceOnUse" r="21.166656" xlink:href="#b"/><linearGradient id="g" gradientUnits="userSpaceOnUse" x1="19.84565550005" x2="19.84565550005" y1="32.128076" y2="4.3441579999"><stop offset="0" stop-color="#f9a825"/><stop offset="1" stop-color="#fbc02d"/></linearGradient><linearGradient id="h" gradientUnits="userSpaceOnUse" x1="23.814816" x2="23.814816" y1="42.05096580616" y2="20.22071629293"><stop offset="0" stop-color="#64b5f6"/><stop offset="1" stop-color="#90caf9"/></linearGradient><path d="m9.921875 41.554688h24.3125v1.984374h-24.3125zm0 0" fill="url(#a)"/><path d="m34.234375 41.554688h3.96875v-1.984376h-3.96875zm0 0" fill="url(#c)"/><path d="m9.921875 41.554688h-3.96875v1.984374h3.96875zm0 0" fill="url(#d)"/><path d="m9.921875 41.554688h-3.96875v-1.984376h3.96875zm0 0" fill="url(#e)"/><path d="m34.234375 41.554688h3.96875v1.984374h-3.96875zm0 0" fill="url(#f)"/><path d="m19.84375 4.34375c7.675781 0 13.894531 6.21875 13.894531 13.890625 0 7.675781-6.21875 13.894531-13.894531 13.894531-7.671875 0-13.890625-6.21875-13.890625-13.894531 0-7.671875 6.21875-13.890625 13.890625-13.890625zm0 0" fill="url(#g)"/><path d="m19.84375 4.34375c-7.695312 0-13.890625 6.195312-13.890625 13.890625 0 .085937 0 .167969.003906.25.128907-7.582031 6.273438-13.644531 13.886719-13.644531s13.761719 6.0625 13.890625 13.644531c.003906-.082031.003906-.164063.003906-.25 0-7.695313-6.195312-13.890625-13.894531-13.890625zm0 0" fill="#fff" fill-opacity=".392157"/><path d="m19.84375 4.203125c-7.769531 0-14.03125 6.261719-14.03125 14.03125 0 7.773437 6.261719 14.035156 14.03125 14.035156 7.773438 0 14.035156-6.261719 14.035156-14.035156 0-7.769531-6.261718-14.03125-14.035156-14.03125zm0 .28125c7.621094 0 13.753906 6.132813 13.753906 13.75 0 7.621094-6.132812 13.753906-13.753906 13.753906-7.617188 0-13.75-6.132812-13.75-13.753906 0-7.617187 6.132812-13.75 13.75-13.75zm0 0" fill="#212121"/><path d="m19.84375 32.128906c-7.695312 0-13.890625-6.195312-13.890625-13.894531 0-.082031 0-.164063.003906-.246094.128907 7.582031 6.273438 13.644531 13.886719 13.644531s13.761719-6.0625 13.890625-13.644531c.003906.082031.003906.164063.003906.246094 0 7.699219-6.195312 13.894531-13.894531 13.894531zm0 0" fill-opacity=".196078"/><path d="m32.746094 20.21875c-4.363282 0-8.113282 2.535156-9.863282 6.21875-.652343-.171875-1.335937-.261719-2.042968-.261719-3.398438 0-6.28125 2.109375-7.421875 5.097657-.980469-.710938-2.1875-1.128907-3.496094-1.128907-3.296875 0-5.953125 2.652344-5.953125 5.953125 0 3.296875 2.65625 5.953125 5.953125 5.953125.246094 0 .488281-.015625.722656-.042969.085938.027344.175781.042969.269531.042969h21.832032c6.046875 0 10.914062-4.867187 10.914062-10.914062s-4.867187-10.917969-10.914062-10.917969zm0 0" fill="url(#h)"/><path d="m32.746094 20.21875c-4.363282 0-8.113282 2.535156-9.863282 6.21875-.652343-.171875-1.335937-.261719-2.042968-.261719-3.398438 0-6.28125 2.109375-7.421875 5.097657-.980469-.710938-2.1875-1.128907-3.496094-1.128907-3.296875 0-5.953125 2.652344-5.953125 5.953125 0 .082032.003906.164063.003906.246094.132813-3.179688 2.734375-5.703125 5.949219-5.703125 1.308594 0 2.515625.417969 3.496094 1.128906 1.140625-2.988281 4.023437-5.097656 7.421875-5.097656.707031 0 1.390625.089844 2.042968.261719 1.75-3.683594 5.5-6.214844 9.863282-6.214844 5.964844 0 10.78125 4.734375 10.910156 10.664062.003906-.082031.003906-.164062.003906-.246093 0-6.046875-4.867187-10.917969-10.914062-10.917969zm0 0" fill="#fff" fill-opacity=".392157"/><path d="m43.65625 30.910156c-.117188 5.941406-4.9375 10.6875-10.910156 10.6875h-21.832032c-.09375 0-.183593-.015625-.269531-.042968-.234375.027343-.476562.042968-.722656.042968-3.222656 0-5.828125-2.535156-5.949219-5.726562 0 .074218-.003906.148437-.003906.226562 0 3.296875 2.65625 5.953125 5.953125 5.953125.246094 0 .488281-.015625.722656-.042969.085938.027344.175781.042969.269531.042969h21.832032c6.046875 0 10.914062-4.867187 10.914062-10.914062 0-.078125 0-.152344-.003906-.226563zm0 0" fill-opacity=".235294"/><path d="m1320.031493 815.040321c-175.888725 0-327.055399 102.19497-397.599847 250.684735-26.296703-6.928473-53.853128-10.550174-82.354345-10.550174-136.994799 0-253.20418 85.031254-299.184043 205.492198-39.523787-28.658682-88.180561-45.507468-140.931431-45.507468-132.900702 0-239.977096 106.91893-239.977096 239.977096 0 132.900702 107.076394 239.977096 239.977096 239.977096 9.920313 0 19.68316-.629861 29.131077-1.732118 3.464237 1.102257 7.085938 1.732118 10.865105 1.732118h880.073484c243.756263 0 439.958009-196.201746 439.958009-439.958009s-196.201746-440.115474-439.958009-440.115474zm0 0" fill="none" stroke="#212121" stroke-linecap="round" stroke-width="11.338583" transform="scale(.0248071)"/></svg>

<?xml version="1.0" encoding="UTF-8"?>
<svg xmlns="http://www.w3.org/2000/svg" xmlns:xlink="http://www.w3.org/1999/xlink" width="48pt" height="48pt" viewBox="0 0 48 48" version="1.1">
<defs>
<linearGradient id="linear0" gradientUnits="userSpaceOnUse" x1="254" y1="233.5" x2="254" y2="254.666672" gradientTransform="matrix(0.093759,0,0,0.093759,0,19.662035)">
<stop offset="0" style="stop-color:rgb(0%,0%,0%);stop-opacity:0.27451;"/>
<stop offset="1" style="stop-color:rgb(0%,0%,0%);stop-opacity:0;"/>
</linearGradient>
<radialGradient id="radial0" gradientUnits="userSpaceOnUse" cx="450.908936" cy="189.579361" fx="450.908936" fy="189.579361" r="21.166656" gradientTransform="matrix(0.000000261256,-0.117199,-0.210958,-0.000000152308,73.730698,94.896856)">
<stop offset="0" style="stop-color:rgb(0%,0%,0%);stop-opacity:0.313725;"/>
<stop offset="0.222222" style="stop-color:rgb(0%,0%,0%);stop-opacity:0.27451;"/>
<stop offset="1" style="stop-color:rgb(0%,0%,0%);stop-opacity:0;"/>
</radialGradient>
<radialGradient id="radial1" gradientUnits="userSpaceOnUse" cx="450.908936" cy="189.579361" fx="450.908936" fy="189.579361" r="21.166656" gradientTransform="matrix(-0.000000261256,0.117199,0.210958,0.000000152308,-29.574151,-11.787361)">
<stop offset="0" style="stop-color:rgb(0%,0%,0%);stop-opacity:0.313725;"/>
<stop offset="0.222222" style="stop-color:rgb(0%,0%,0%);stop-opacity:0.27451;"/>
<stop offset="1" style="stop-color:rgb(0%,0%,0%);stop-opacity:0;"/>
</radialGradient>
<radialGradient id="radial2" gradientUnits="userSpaceOnUse" cx="450.908936" cy="189.579361" fx="450.908936" fy="189.579361" r="21.166656" gradientTransform="matrix(-0.000000261256,-0.117199,0.210958,-0.000000152308,-29.574151,94.896856)">
<stop offset="0" style="stop-color:rgb(0%,0%,0%);stop-opacity:0.313725;"/>
<stop offset="0.222222" style="stop-color:rgb(0%,0%,0%);stop-opacity:0.27451;"/>
<stop offset="1" style="stop-color:rgb(0%,0%,0%);stop-opacity:0;"/>
</radialGradient>
<radialGradient id="radial3" gradientUnits="userSpaceOnUse" cx="450.908936" cy="189.579361" fx="450.908936" fy="189.579361" r="21.166656" gradientTransform="matrix(0.000000261256,0.117199,-0.210958,0.000000152308,73.730695,-11.787362)">
<stop offset="0" style="stop-color:rgb(0%,0%,0%);stop-opacity:0.313725;"/>
<stop offset="0.222222" style="stop-color:rgb(0%,0%,0%);stop-opacity:0.27451;"/>
<stop offset="1" style="stop-color:rgb(0%,0%,0%);stop-opacity:0;"/>
</radialGradient>
<linearGradient id="linear1" gradientUnits="userSpaceOnUse" x1="211.666672" y1="170" x2="211.666672" y2="-126.333344" gradientTransform="matrix(0.093759,0,0,0.093759,0,16.189046)">
<stop offset="0" style="stop-color:rgb(97.647059%,65.882353%,14.509804%);stop-opacity:1;"/>
<stop offset="1" style="stop-color:rgb(98.431373%,75.294118%,17.647059%);stop-opacity:1;"/>
</linearGradient>
<linearGradient id="linear2" gradientUnits="userSpaceOnUse" x1="960" y1="1695.118164" x2="960" y2="815.118103" gradientTransform="matrix(0.0248071,0,0,0.0248071,0,0)">
<stop offset="0" style="stop-color:rgb(39.215686%,70.980392%,96.470588%);stop-opacity:1;"/>
<stop offset="1" style="stop-color:rgb(56.470588%,79.215686%,97.647059%);stop-opacity:1;"/>
</linearGradient>
</defs>
<g id="surface1">
<path style=" stroke:none;fill-rule:nonzero;fill:url(#linear0);" d="M 9.921875 41.554688 L 34.234375 41.554688 L 34.234375 43.539062 L 9.921875 43.539062 Z M 9.921875 41.554688 "/>
<path style=" stroke:none;fill-rule:nonzero;fill:url(#radial0);" d="M 34.234375 41.554688 L 38.203125 41.554688 L 38.203125 39.570312 L 34.234375 39.570312 Z M 34.234375 41.554688 "/>
<path style=" stroke:none;fill-rule:nonzero;fill:url(#radial1);" d="M 9.921875 41.554688 L 5.953125 41.554688 L 5.953125 43.539062 L 9.921875 43.539062 Z M 9.921875 41.554688 "/>
<path style=" stroke:none;fill-rule:nonzero;fill:url(#radial2);" d="M 9.921875 41.554688 L 5.953125 41.554688 L 5.953125 39.570312 L 9.921875 39.570312 Z M 9.921875 41.554688 "/>
<path style=" stroke:none;fill-rule:nonzero;fill:url(#radial3);" d="M 34.234375 41.554688 L 38.203125 41.554688 L 38.203125 43.539062 L 34.234375 43.539062 Z M 34.234375 41.554688 "/>
<path style=" stroke:none;fill-rule:nonzero;fill:url(#linear1);" d="M 19.84375 4.34375 C 27.519531 4.34375 33.738281 10.5625 33.738281 18.234375 C 33.738281 25.910156 27.519531 32.128906 19.84375 32.128906 C 12.171875 32.128906 5.953125 25.910156 5.953125 18.234375 C 5.953125 10.5625 12.171875 4.34375 19.84375 4.34375 Z M 19.84375 4.34375 "/>
<path style=" stroke:none;fill-rule:nonzero;fill:rgb(100%,100%,100%);fill-opacity:0.392157;" d="M 19.84375 4.34375 C 12.148438 4.34375 5.953125 10.539062 5.953125 18.234375 C 5.953125 18.320312 5.953125 18.402344 5.957031 18.484375 C 6.085938 10.902344 12.230469 4.839844 19.84375 4.839844 C 27.457031 4.839844 33.605469 10.902344 33.734375 18.484375 C 33.738281 18.402344 33.738281 18.320312 33.738281 18.234375 C 33.738281 10.539062 27.542969 4.34375 19.84375 4.34375 Z M 19.84375 4.34375 "/>
<path style=" stroke:none;fill-rule:nonzero;fill:rgb(12.941177%,12.941177%,12.941177%);fill-opacity:1;" d="M 19.84375 4.203125 C 12.074219 4.203125 5.8125 10.464844 5.8125 18.234375 C 5.8125 26.007812 12.074219 32.269531 19.84375 32.269531 C 27.617188 32.269531 33.878906 26.007812 33.878906 18.234375 C 33.878906 10.464844 27.617188 4.203125 19.84375 4.203125 Z M 19.84375 4.484375 C 27.464844 4.484375 33.597656 10.617188 33.597656 18.234375 C 33.597656 25.855469 27.464844 31.988281 19.84375 31.988281 C 12.226562 31.988281 6.09375 25.855469 6.09375 18.234375 C 6.09375 10.617188 12.226562 4.484375 19.84375 4.484375 Z M 19.84375 4.484375 "/>
<path style=" stroke:none;fill-rule:nonzero;fill:rgb(0%,0%,0%);fill-opacity:0.196078;" d="M 19.84375 32.128906 C 12.148438 32.128906 5.953125 25.933594 5.953125 18.234375 C 5.953125 18.152344 5.953125 18.070312 5.957031 17.988281 C 6.085938 25.570312 12.230469 31.632812 19.84375 31.632812 C 27.457031 31.632812 33.605469 25.570312 33.734375 17.988281 C 33.738281 18.070312 33.738281 18.152344 33.738281 18.234375 C 33.738281 25.933594 27.542969 32.128906 19.84375 32.128906 Z M 19.84375 32.128906 "/>
<path style=" stroke:none;fill-rule:nonzero;fill:url(#linear2);" d="M 32.746094 20.21875 C 28.382812 20.21875 24.632812 22.753906 22.882812 26.4375 C 22.230469 26.265625 21.546875 26.175781 20.839844 26.175781 C 17.441406 26.175781 14.558594 28.285156 13.417969 31.273438 C 12.4375 30.5625 11.230469 30.144531 9.921875 30.144531 C 6.625 30.144531 3.96875 32.796875 3.96875 36.097656 C 3.96875 39.394531 6.625 42.050781 9.921875 42.050781 C 10.167969 42.050781 10.410156 42.035156 10.644531 42.007812 C 10.730469 42.035156 10.820312 42.050781 10.914062 42.050781 L 32.746094 42.050781 C 38.792969 42.050781 43.660156 37.183594 43.660156 31.136719 C 43.660156 25.089844 38.792969 20.21875 32.746094 20.21875 Z M 32.746094 20.21875 "/>
<path style=" stroke:none;fill-rule:nonzero;fill:rgb(100%,100%,100%);fill-opacity:0.392157;" d="M 32.746094 20.21875 C 28.382812 20.21875 24.632812 22.753906 22.882812 26.4375 C 22.230469 26.265625 21.546875 26.175781 20.839844 26.175781 C 17.441406 26.175781 14.558594 28.285156 13.417969 31.273438 C 12.4375 30.5625 11.230469 30.144531 9.921875 30.144531 C 6.625 30.144531 3.96875 32.796875 3.96875 36.097656 C 3.96875 36.179688 3.972656 36.261719 3.972656 36.34375 C 4.105469 33.164062 6.707031 30.640625 9.921875 30.640625 C 11.230469 30.640625 12.4375 31.058594 13.417969 31.769531 C 14.558594 28.78125 17.441406 26.671875 20.839844 26.671875 C 21.546875 26.671875 22.230469 26.761719 22.882812 26.933594 C 24.632812 23.25 28.382812 20.71875 32.746094 20.71875 C 38.710938 20.71875 43.527344 25.453125 43.65625 31.382812 C 43.660156 31.300781 43.660156 31.21875 43.660156 31.136719 C 43.660156 25.089844 38.792969 20.21875 32.746094 20.21875 Z M 32.746094 20.21875 "/>
<path style=" stroke:none;fill-rule:nonzero;fill:rgb(0%,0%,0%);fill-opacity:0.235294;" d="M 43.65625 30.910156 C 43.539062 36.851562 38.71875 41.597656 32.746094 41.597656 L 10.914062 41.597656 C 10.820312 41.597656 10.730469 41.582031 10.644531 41.554688 C 10.410156 41.582031 10.167969 41.597656 9.921875 41.597656 C 6.699219 41.597656 4.09375 39.0625 3.972656 35.871094 C 3.972656 35.945312 3.96875 36.019531 3.96875 36.097656 C 3.96875 39.394531 6.625 42.050781 9.921875 42.050781 C 10.167969 42.050781 10.410156 42.035156 10.644531 42.007812 C 10.730469 42.035156 10.820312 42.050781 10.914062 42.050781 L 32.746094 42.050781 C 38.792969 42.050781 43.660156 37.183594 43.660156 31.136719 C 43.660156 31.058594 43.660156 30.984375 43.65625 30.910156 Z M 43.65625 30.910156 "/>
<path style="fill:none;stroke-width:11.338583;stroke-linecap:round;stroke-linejoin:miter;stroke:rgb(12.941177%,12.941177%,12.941177%);stroke-opacity:1;stroke-miterlimit:4;" d="M 1320.031493 815.040321 C 1144.142768 815.040321 992.976094 917.235291 922.431646 1065.725056 C 896.134943 1058.796583 868.578518 1055.174882 840.077301 1055.174882 C 703.082502 1055.174882 586.873121 1140.206136 540.893258 1260.66708 C 501.369471 1232.008398 452.712697 1215.159612 399.961827 1215.159612 C 267.061125 1215.159612 159.984731 1322.078542 159.984731 1455.136708 C 159.984731 1588.03741 267.061125 1695.113804 399.961827 1695.113804 C 409.88214 1695.113804 419.644987 1694.483943 429.092904 1693.381686 C 432.557141 1694.483943 436.178842 1695.113804 439.958009 1695.113804 L 1320.031493 1695.113804 C 1563.787756 1695.113804 1759.989502 1498.912058 1759.989502 1255.155795 C 1759.989502 1011.399532 1563.787756 815.040321 1320.031493 815.040321 Z M 1320.031493 815.040321 " transform="matrix(0.0248071,0,0,0.0248071,0,0)"/>
</g>
</svg>
